dist/2.0.0/img/icon-pdf-inverse.svg

<svg width="21" height="23" viewBox="0 0 21 23" xmlns="http://www.w3.org/2000/svg"><title>icon-pdf-inverse</title><path d="M1.23 22.107c.224.246.515.36.852.36h16.812c.337 0 .628-.114.853-.36.247-.225.36-.517.36-.853V6.844c0-.337-.09-.72-.248-1.123-.18-.38-.383-.717-.607-.942L15.348.873c-.225-.225-.562-.427-.943-.606C14 .11 13.62.02 13.282.02h-11.2c-.337 0-.628.112-.853.36C.98.603.87.894.87 1.23v20.022c0 .336.112.628.36.853zM2.463 1.614h9.63V6.82c0 .338.11.63.358.854.224.247.516.36.853.36h5.207V20.87H2.464V1.614zm1.683 17.35c.045.023.067.045.09.045l.292.156c.11.068.223.09.358.09.74 0 1.75-1.1 3.03-3.277 1.414-.495 3.053-.854 4.916-1.056.516.292 1.054.494 1.616.673.56.157 1.055.247 1.46.247.537 0 .83-.157.874-.494.022 0 .022-.022.022-.022l.023-.022c.11-.247.11-.472-.024-.65-.247-.405-.987-.607-2.222-.607-.494 0-.987.02-1.48.088-.405-.247-.764-.493-1.034-.695-.763-.63-1.37-1.617-1.84-2.986.112-.583.157-1.39.18-2.4v-.383c0-.045 0-.067-.023-.112.022 0 .045-.045.067-.09.068-.382.023-.673-.112-.853-.112-.113-.247-.18-.45-.18h-.268c-.27 0-.45.157-.54.493-.11.427-.134.965-.066 1.594.045.65.18 1.324.38 1.998-.313 1.055-.74 2.154-1.3 3.277-.472.942-.92 1.75-1.347 2.47 0-.024 0-.024-.022-.046-.09-.135-.18-.157-.29-.09-.72.382-1.258.786-1.663 1.212-.38.45-.628.83-.695 1.145-.023.224 0 .38.067.47zM5.47 17.64c.293-.36.675-.718 1.1-1.033-.717 1.1-1.3 1.774-1.727 1.976.112-.247.314-.562.628-.943zm3.368-3.345c.472-.92.808-1.75 1.033-2.47.427.922.966 1.64 1.617 2.2.022.046.09.113.202.18.09.068.134.113.156.113-1.257.224-2.447.56-3.57 1.01.136-.225.315-.584.562-1.033zm.988-7.227v-.023l.022-.022c.09.112.157.247.157.427v.022l.023.022v.023c-.023.045-.045.067-.045.112-.067.336-.09.515-.09.538-.045.292-.09.494-.09.538-.112-.74-.09-1.3.023-1.638zm3.86-5.365c.247.09.404.18.517.292l3.928 3.928c.113.112.203.27.293.516h-4.737V1.702zm2.694 14.423l.022.022c-.045.023-.112.023-.224.023-.404 0-.92-.11-1.57-.336.986 0 1.57.09 1.772.292z" fill="#FFF" fill-rule="evenodd"/></svg>

<?xml version="1.0" encoding="UTF-8" standalone="no"?>
<svg width="21px" height="23px" viewBox="0 0 21 23" version="1.1" xmlns="http://www.w3.org/2000/svg" xmlns:xlink="http://www.w3.org/1999/xlink" xmlns:sketch="http://www.bohemiancoding.com/sketch/ns">
    <!-- Generator: Sketch 3.3 (11970) - http://www.bohemiancoding.com/sketch -->
    <title>icon-pdf-inverse</title>
    <desc>Created with Sketch.</desc>
    <defs></defs>
    <g id="Desktop" stroke="none" stroke-width="1" fill="none" fill-rule="evenodd" sketch:type="MSPage">
        <g id="Desktop-HD" sketch:type="MSArtboardGroup" transform="translate(-298.000000, -420.000000)" fill="#FFFFFF">
            <g id="icon-pdf-inverse" sketch:type="MSLayerGroup" transform="translate(298.000000, 420.000000)">
                <path d="M1.229,22.107 C1.454,22.353 1.745,22.466 2.082,22.466 L18.894,22.466 C19.231,22.466 19.522,22.353 19.747,22.107 C19.994,21.882 20.106,21.59 20.106,21.254 L20.106,6.843 C20.106,6.507 20.016,6.125 19.859,5.721 C19.679,5.34 19.477,5.003 19.253,4.778 L15.348,0.873 C15.123,0.648 14.786,0.446 14.405,0.267 C14.001,0.11 13.619,0.02 13.282,0.02 L2.082,0.02 C1.745,0.02 1.454,0.132 1.229,0.379 C0.982,0.604 0.87,0.895 0.87,1.232 L0.87,21.254 C0.87,21.59 0.982,21.882 1.229,22.107 L1.229,22.107 Z M2.464,1.614 L12.093,1.614 L12.093,6.821 C12.093,7.158 12.205,7.45 12.452,7.674 C12.676,7.921 12.968,8.033 13.305,8.033 L18.512,8.033 L18.512,20.872 L2.464,20.872 L2.464,1.614 L2.464,1.614 Z M4.147,18.964 C4.192,18.987 4.214,19.009 4.237,19.009 L4.529,19.166 C4.641,19.234 4.753,19.256 4.888,19.256 C5.628,19.256 6.638,18.156 7.918,15.979 C9.332,15.485 10.971,15.126 12.834,14.924 C13.35,15.216 13.888,15.418 14.45,15.597 C15.011,15.754 15.505,15.844 15.909,15.844 C16.447,15.844 16.739,15.687 16.784,15.35 C16.806,15.35 16.806,15.328 16.806,15.328 L16.829,15.306 C16.941,15.059 16.941,14.834 16.806,14.655 C16.559,14.251 15.819,14.049 14.584,14.049 C14.09,14.049 13.597,14.071 13.103,14.138 C12.699,13.891 12.34,13.645 12.07,13.443 C11.307,12.814 10.701,11.826 10.23,10.457 C10.342,9.874 10.387,9.066 10.409,8.056 L10.409,7.674 C10.409,7.629 10.409,7.607 10.387,7.562 C10.409,7.562 10.432,7.517 10.454,7.472 C10.522,7.09 10.477,6.799 10.342,6.619 C10.23,6.507 10.095,6.439 9.893,6.439 L9.624,6.439 C9.355,6.439 9.175,6.597 9.085,6.933 C8.973,7.36 8.95,7.898 9.018,8.527 C9.063,9.178 9.197,9.851 9.399,10.525 C9.085,11.58 8.659,12.679 8.097,13.802 C7.626,14.744 7.177,15.552 6.751,16.271 C6.751,16.248 6.751,16.248 6.728,16.226 C6.638,16.091 6.549,16.069 6.437,16.136 C5.718,16.518 5.18,16.922 4.775,17.348 C4.394,17.797 4.147,18.179 4.08,18.493 C4.057,18.717 4.08,18.874 4.147,18.964 L4.147,18.964 Z M5.471,17.64 C5.763,17.281 6.145,16.922 6.571,16.607 C5.853,17.707 5.269,18.381 4.843,18.583 C4.955,18.336 5.157,18.021 5.471,17.64 L5.471,17.64 Z M8.838,14.295 C9.31,13.375 9.646,12.545 9.871,11.826 C10.297,12.747 10.836,13.465 11.487,14.026 C11.509,14.071 11.577,14.138 11.689,14.206 C11.779,14.273 11.824,14.318 11.846,14.318 C10.589,14.542 9.399,14.879 8.277,15.328 C8.412,15.103 8.591,14.744 8.838,14.295 L8.838,14.295 Z M9.826,7.068 L9.826,7.045 L9.848,7.023 C9.938,7.135 10.005,7.27 10.005,7.45 L10.005,7.472 L10.028,7.494 L10.028,7.517 C10.005,7.562 9.983,7.584 9.983,7.629 C9.916,7.966 9.893,8.145 9.893,8.168 C9.848,8.46 9.803,8.662 9.803,8.706 C9.691,7.966 9.714,7.405 9.826,7.068 L9.826,7.068 Z M13.686,1.703 C13.933,1.793 14.09,1.883 14.203,1.995 L18.131,5.923 C18.243,6.035 18.333,6.193 18.423,6.439 L13.686,6.439 L13.686,1.703 L13.686,1.703 Z M16.38,16.126 L16.402,16.148 C16.357,16.171 16.29,16.171 16.178,16.171 C15.774,16.171 15.258,16.059 14.607,15.834 C15.594,15.834 16.178,15.924 16.38,16.126 L16.38,16.126 Z" id="Fill-225" sketch:type="MSShapeGroup"></path>
            </g>
        </g>
    </g>
</svg>
